communes/5257.svg

<?xml version="1.0" encoding="UTF-8" standalone="no"?>
<svg
   xmlns:i="http://ns.adobe.com/AdobeIllustrator/10.0/"
   xmlns:dc="http://purl.org/dc/elements/1.1/"
   xmlns:cc="http://web.resource.org/cc/"
   xmlns:rdf="http://www.w3.org/1999/02/22-rdf-syntax-ns#"
   xmlns:svg="http://www.w3.org/2000/svg"
   xmlns="http://www.w3.org/2000/svg"
   xmlns:xlink="http://www.w3.org/1999/xlink"
   xmlns:sodipodi="http://sodipodi.sourceforge.net/DTD/sodipodi-0.dtd"
   xmlns:inkscape="http://www.inkscape.org/namespaces/inkscape"
   height="763"
   width="603"
   version="1.0"
   id="svg20"
   sodipodi:version="0.32"
   inkscape:version="0.44"
   sodipodi:docname="MorbioInferiore-blason.svg"
   sodipodi:docbase="C:\Documents and Settings\Steve\Bureau\Blason Villages Suisse pour Wikipédia (par Delta-9)\TI">
  <metadata
     id="metadata31">
    <rdf:RDF>
      <cc:Work
         rdf:about="">
        <dc:format>image/svg+xml</dc:format>
        <dc:type
           rdf:resource="http://purl.org/dc/dcmitype/StillImage" />
        <dc:date>07-AUG-2006</dc:date>
        <dc:creator>
          <cc:Agent>
            <dc:title>Jérôme BLUM (wagner51)</dc:title>
          </cc:Agent>
        </dc:creator>
        <cc:license
           rdf:resource="http://creativecommons.org/licenses/GPL/2.0/" />
        <dc:coverage />
        <dc:description>Gabarit pour le Projet:Blasons de WIkipédia</dc:description>
        <dc:subject>
          <rdf:Bag>
            <rdf:li>blason suisse modèle gabarit projet blasons</rdf:li>
          </rdf:Bag>
        </dc:subject>
        <dc:language>fr</dc:language>
        <dc:title>Gabrit d'un blason suisse</dc:title>
      </cc:Work>
      <cc:License
         rdf:about="http://creativecommons.org/licenses/GPL/2.0/">
        <cc:permits
           rdf:resource="http://web.resource.org/cc/Reproduction" />
        <cc:permits
           rdf:resource="http://web.resource.org/cc/Distribution" />
        <cc:requires
           rdf:resource="http://web.resource.org/cc/Notice" />
        <cc:permits
           rdf:resource="http://web.resource.org/cc/DerivativeWorks" />
        <cc:requires
           rdf:resource="http://web.resource.org/cc/ShareAlike" />
        <cc:requires
           rdf:resource="http://web.resource.org/cc/SourceCode" />
      </cc:License>
    </rdf:RDF>
  </metadata>
  <defs
     id="defs29"><linearGradient
   id="linearGradient2893">
  <stop
     style="stop-color:#ffffff;stop-opacity:0.3137255;"
     offset="0"
     id="stop2895" />
  <stop
     id="stop2897"
     offset="0.19"
     style="stop-color:#ffffff;stop-opacity:0.25098041;" />
  <stop
     style="stop-color:#6b6b6b;stop-opacity:0.1254902;"
     offset="0.60000002"
     id="stop2901" />
  <stop
     style="stop-color:#000000;stop-opacity:0.1254902;"
     offset="1"
     id="stop2899" />
</linearGradient>
<linearGradient
   id="linearGradient2955">
  <stop
     style="stop-color:white;stop-opacity:0;"
     offset="0"
     id="stop2965" />
  <stop
     style="stop-color:black;stop-opacity:0.64583331;"
     offset="1"
     id="stop2959" />
</linearGradient>
<radialGradient
   inkscape:collect="always"
   xlink:href="#linearGradient2893"
   id="radialGradient3236"
   gradientUnits="userSpaceOnUse"
   gradientTransform="matrix(1.215027,1.531577e-24,1.464684e-23,1.266667,-839.1924,-490.4894)"
   cx="858.04236"
   cy="579.93323"
   fx="858.04236"
   fy="579.93323"
   r="300" />

			<foreignObject
   requiredExtensions="http://ns.adobe.com/AdobeIllustrator/10.0/"
   x="0"
   y="0"
   width="1"
   height="1"
   id="foreignObject1961">
				<i:pgfRef
   xlink:href="#adobe_illustrator_pgf">
				</i:pgfRef>

			</foreignObject>

			
		
				
			
					
					 
					
					
					
					 
					
					
				</defs>
  <sodipodi:namedview
     inkscape:window-height="788"
     inkscape:window-width="945"
     inkscape:pageshadow="2"
     inkscape:pageopacity="0.0"
     guidetolerance="10.0"
     gridtolerance="10.0"
     objecttolerance="10.0"
     borderopacity="1.0"
     bordercolor="#666666"
     pagecolor="#ffffff"
     id="base"
     inkscape:zoom="0.65936082"
     inkscape:cx="346.72958"
     inkscape:cy="332.57232"
     inkscape:window-x="20"
     inkscape:window-y="42"
     inkscape:current-layer="layer2"
     showgrid="false"
     showguides="true"
     inkscape:guide-bbox="true">
    <sodipodi:guide
       orientation="vertical"
       position="301.5"
       id="guide1885" />
  </sodipodi:namedview>
  <desc
     id="desc22">Coat of Arms of Canton of Freiburg (Fribourg)</desc>
  <g
     inkscape:groupmode="layer"
     id="layer1"
     inkscape:label="Fond écu"
     sodipodi:insensitive="true">
    <path
       id="path1899"
       d="M 1.5,1.49998 L 1.5,460.3679 C 1.5,626.6785 135.81456,761.5 301.49999,761.5 C 467.18543,761.5 601.5,626.6785 601.5,460.3679 L 601.5,1.49998 L 1.5,1.49998 z "
       style="fill:#e20909;fill-opacity:1" />
    <path
       style="fill:white;fill-opacity:1;stroke:none;stroke-width:2.75;stroke-miterlimit:4;stroke-dasharray:none;stroke-opacity:1"
       d="M 301.5,1.5 L 301.5,761.5 C 467.18543,761.5 601.5,626.6856 601.5,460.375 L 601.5,1.5 L 301.5,1.5 z "
       id="rect3829" />
  </g>
  <g
     inkscape:groupmode="layer"
     id="layer2"
     inkscape:label="Meubles"
     style="opacity:1"
     sodipodi:insensitive="true">
    <path
       style="fill:none;fill-rule:evenodd;stroke:black;stroke-width:3;stroke-linecap:butt;stroke-linejoin:miter;stroke-miterlimit:4;stroke-dasharray:none;stroke-opacity:1"
       d="M 301.5,761.09839 L 301.5,1.7012887"
       id="path5604" />
    <path
       style="fill:white;stroke:black;stroke-width:2.75;stroke-miterlimit:4;stroke-dasharray:none"
       i:knockout="Off"
       d="M 102.58367,380.85994 L 47.860833,551.02817 L 253.26381,551.02817 L 253.26381,503.01002 C 253.26381,485.01382 274.86393,470.42263 301.51013,470.42263 L 301.51013,380.85994 L 102.58367,380.85994 z "
       id="path1966" />
    <rect
       style="fill:white;stroke:black;stroke-width:2.75;stroke-miterlimit:4;stroke-dasharray:none"
       x="111.26001"
       y="136.08003"
       i:knockout="Off"
       width="105.01684"
       height="244.91446"
       id="rect1968" />
    <polygon
       style="fill:white;stroke:black;stroke-width:0.94008738;stroke-miterlimit:4;stroke-dasharray:none"
       i:knockout="Off"
       points="87.396,94.62 82.879,94.62 82.879,83.786 71.912,83.786 71.912,94.62 62.757,94.62 62.757,83.786 51.79,83.786 51.79,94.62 42.634,94.62 42.634,83.786 31.667,83.786 31.667,94.62 22.512,94.62 22.512,83.786 11.544,83.786 11.544,99.12 87.396,99.12 87.396,94.62 "
       id="polygon1970"
       transform="matrix(2.92526,0,0,2.92526,45.8541,95.84308)" />
    <polygon
       style="fill:white;stroke:black;stroke-width:0.94008738;stroke-miterlimit:4;stroke-dasharray:none"
       i:knockout="Off"
       points="54.973,0.5 54.973,11.333 45.81,11.333 45.81,0.5 34.833,0.5 34.833,11.333 25.671,11.333 25.671,0.5 14.695,0.5 14.695,15.833 65.949,15.833 65.949,0.5 54.973,0.5 "
       id="polygon1972"
       transform="matrix(2.92526,0,0,2.92526,45.8541,95.84308)" />
    <path
       style="fill:#e20909;fill-opacity:1;stroke:black;stroke-width:2.75;stroke-miterlimit:4;stroke-dasharray:none"
       i:knockout="Off"
       d="M 500.43658,380.85994 L 555.15942,551.02817 L 349.75644,551.02817 L 349.75644,503.01002 C 349.75644,485.01382 328.1534,470.42263 301.51013,470.42263 L 301.51013,380.85994 L 500.43658,380.85994 z "
       id="path1974" />
    <rect
       style="fill:#e20909;stroke:black;stroke-width:2.75;stroke-miterlimit:4;stroke-dasharray:none"
       x="386.74338"
       y="136.08003"
       i:knockout="Off"
       width="105.01684"
       height="244.91446"
       id="rect1976" />
    <polygon
       style="fill:#e20909;stroke:black;stroke-width:0.94008738;stroke-miterlimit:4;stroke-dasharray:none"
       i:knockout="Off"
       points="87.396,94.62 91.913,94.62 91.913,83.786 102.879,83.786 102.879,94.62 112.035,94.62 112.035,83.786 123.002,83.786 123.002,94.62 132.158,94.62 132.158,83.786 143.125,83.786 143.125,94.62 152.28,94.62 152.28,83.786 163.248,83.786 163.248,99.12 87.396,99.12 87.396,94.62 "
       id="polygon1978"
       transform="matrix(2.92526,0,0,2.92526,45.8541,95.84308)" />
    <polygon
       style="fill:#e20909;stroke:black;stroke-width:0.94008738;stroke-miterlimit:4;stroke-dasharray:none"
       i:knockout="Off"
       points="119.819,0.5 119.819,11.333 128.982,11.333 128.982,0.5 139.958,0.5 139.958,11.333 149.121,11.333 149.121,0.5 160.097,0.5 160.097,15.833 108.843,15.833 108.843,0.5 119.819,0.5 "
       id="polygon1980"
       transform="matrix(2.92526,0,0,2.92526,45.8541,95.84308)" />
  </g>
  <g
     inkscape:groupmode="layer"
     id="layer3"
     inkscape:label="Reflet final"
     style="display:inline"
     sodipodi:insensitive="true">
    <path
       style="fill:url(#radialGradient3236);fill-opacity:1"
       d="M 1.5,1.5 L 1.5,460.3679 C 1.5,626.67854 135.81454,761.5 301.49993,761.5 C 467.1854,761.5 601.5,626.67854 601.5,460.3679 L 601.5,1.5 L 1.5,1.5 z "
       id="path2346" />
  </g>
  <g
     inkscape:groupmode="layer"
     id="layer4"
     inkscape:label="Contour final"
     style="display:inline"
     sodipodi:insensitive="true">
    <path
       style="fill:none;fill-opacity:1;stroke:#000000;stroke-width:3;stroke-miterlimit:4;stroke-dasharray:none;stroke-opacity:1"
       d="M 1.5,1.5 L 1.5,460.36794 C 1.5,626.67854 135.81454,761.5 301.49993,761.5 C 467.1854,761.5 601.5,626.67854 601.5,460.36794 L 601.5,1.5 L 1.5,1.5 z "
       id="path3239" />
  </g>
</svg>

<?xml version="1.0" encoding="UTF-8"?>
<svg version="1.0" viewBox="0 0 603 763" xmlns="http://www.w3.org/2000/svg" xmlns:cc="http://web.resource.org/cc/" xmlns:dc="http://purl.org/dc/elements/1.1/" xmlns:rdf="http://www.w3.org/1999/02/22-rdf-syntax-ns#" xmlns:xlink="http://www.w3.org/1999/xlink">
<metadata>
<rdf:RDF>
<cc:Work rdf:about="">
<dc:format>image/svg+xml</dc:format>
<dc:type rdf:resource="http://purl.org/dc/dcmitype/StillImage"/>
<dc:date>07-AUG-2006</dc:date>
<dc:creator>
<cc:Agent>
<dc:title>Jérôme BLUM (wagner51)</dc:title>
</cc:Agent>
</dc:creator>
<cc:license rdf:resource="http://creativecommons.org/licenses/GPL/2.0/"/>
<dc:coverage/>
<dc:description>Gabarit pour le Projet:Blasons de WIkipédia</dc:description>
<dc:subject>
<rdf:Bag>
<rdf:li>blason suisse modèle gabarit projet blasons</rdf:li>
</rdf:Bag>
</dc:subject>
<dc:language>fr</dc:language>
<dc:title>Gabrit d'un blason suisse</dc:title>
</cc:Work>
<cc:License rdf:about="http://creativecommons.org/licenses/GPL/2.0/">
<cc:permits rdf:resource="http://web.resource.org/cc/Reproduction"/>
<cc:permits rdf:resource="http://web.resource.org/cc/Distribution"/>
<cc:requires rdf:resource="http://web.resource.org/cc/Notice"/>
<cc:permits rdf:resource="http://web.resource.org/cc/DerivativeWorks"/>
<cc:requires rdf:resource="http://web.resource.org/cc/ShareAlike"/>
<cc:requires rdf:resource="http://web.resource.org/cc/SourceCode"/>
</cc:License>
</rdf:RDF>
</metadata>
<defs>
<radialGradient id="a" cx="858.04" cy="579.93" r="300" gradientTransform="matrix(1.215 1.5316e-24 1.4647e-23 1.2667 -839.19 -490.49)" gradientUnits="userSpaceOnUse">
<stop stop-color="#fff" stop-opacity=".31373" offset="0"/>
<stop stop-color="#fff" stop-opacity=".25098" offset=".19"/>
<stop stop-color="#6b6b6b" stop-opacity=".12549" offset=".6"/>
<stop stop-opacity=".12549" offset="1"/>
</radialGradient>
</defs>
<desc>Coat of Arms of Canton of Freiburg (Fribourg)</desc>
<g>
<path d="m1.5 1.5v458.87c0 166.31 134.31 301.13 300 301.13 165.69 0 300-134.82 300-301.13v-458.87h-600z" fill="#e20909"/>
<path d="m301.5 1.5v760c165.69 0 300-134.81 300-301.12v-458.88h-300z" fill="#fff"/>
</g>
<g stroke="#000">
<path d="m301.5 761.1v-759.4" fill="none" stroke-width="3"/>
<path d="m102.58 380.86-54.723 170.17h205.4v-48.018c0-17.996 21.6-32.587 48.246-32.587v-89.563h-198.93z" fill="#fff" stroke-width="2.75"/>
<rect x="111.26" y="136.08" width="105.02" height="244.91" fill="#fff" stroke-width="2.75"/>
<polygon transform="matrix(2.9253 0 0 2.9253 45.854 95.843)" points="87.396 94.62 82.879 94.62 82.879 83.786 71.912 83.786 71.912 94.62 62.757 94.62 62.757 83.786 51.79 83.786 51.79 94.62 42.634 94.62 42.634 83.786 31.667 83.786 31.667 94.62 22.512 94.62 22.512 83.786 11.544 83.786 11.544 99.12 87.396 99.12" fill="#fff" stroke-width=".94009"/>
<polygon transform="matrix(2.9253 0 0 2.9253 45.854 95.843)" points="54.973 0.5 54.973 11.333 45.81 11.333 45.81 0.5 34.833 0.5 34.833 11.333 25.671 11.333 25.671 0.5 14.695 0.5 14.695 15.833 65.949 15.833 65.949 0.5" fill="#fff" stroke-width=".94009"/>
<path d="m500.44 380.86 54.723 170.17h-205.4v-48.018c0-17.996-21.603-32.587-48.246-32.587v-89.563h198.93z" fill="#e20909" stroke-width="2.75"/>
<rect x="386.74" y="136.08" width="105.02" height="244.91" fill="#e20909" stroke-width="2.75"/>
<polygon transform="matrix(2.9253 0 0 2.9253 45.854 95.843)" points="87.396 94.62 91.913 94.62 91.913 83.786 102.88 83.786 102.88 94.62 112.04 94.62 112.04 83.786 123 83.786 123 94.62 132.16 94.62 132.16 83.786 143.12 83.786 143.12 94.62 152.28 94.62 152.28 83.786 163.25 83.786 163.25 99.12 87.396 99.12" fill="#e20909" stroke-width=".94009"/>
<polygon transform="matrix(2.9253 0 0 2.9253 45.854 95.843)" points="119.82 0.5 119.82 11.333 128.98 11.333 128.98 0.5 139.96 0.5 139.96 11.333 149.12 11.333 149.12 0.5 160.1 0.5 160.1 15.833 108.84 15.833 108.84 0.5" fill="#e20909" stroke-width=".94009"/>
</g>
<g>
<path d="m1.5 1.5v458.87c0 166.31 134.31 301.13 300 301.13 165.69 0 300-134.82 300-301.13v-458.87h-600z" fill="url(#a)"/>
<path d="m1.5 1.5v458.87c0 166.31 134.31 301.13 300 301.13 165.69 0 300-134.82 300-301.13v-458.87h-600z" fill="none" stroke="#000" stroke-width="3"/>
</g>
</svg>
